public/assets/images/icons/green/privacy.svg

<svg xmlns="http://www.w3.org/2000/svg" viewBox="0 0 54 54" fill="#00962d"><path d="M27.87 14.51H23v10.24h5.13a6.47 6.47 0 0 0 4.4-1.35 4.84 4.84 0 0 0 1.55-3.86q.02-5.02-6.21-5.03z"/><path d="M27 3a24 24 0 1 0 24 24A24 24 0 0 0 27 3zm10.52 21.72a8.21 8.21 0 0 1-3.91 3.2 20 20 0 0 1-7.12 1H23v14.19h-4.69V10.34h10.38a10.68 10.68 0 0 1 7.47 2.53A8.71 8.71 0 0 1 39 19.66a9.1 9.1 0 0 1-1.48 5.06z"/></svg>

<svg id="icons" xmlns="http://www.w3.org/2000/svg" viewBox="0 0 54 54" fill="#00962d"><g id="privacy"><path d="M27.87,14.51H23V24.75h5.13a6.47,6.47,0,0,0,4.4-1.35,4.84,4.84,0,0,0,1.55-3.86Q34.1,14.52,27.87,14.51Z"/><path d="M27,3A24,24,0,1,0,51,27,24,24,0,0,0,27,3ZM37.52,24.72a8.21,8.21,0,0,1-3.91,3.2,20,20,0,0,1-7.12,1H23V43.11H18.31V10.34H28.69a10.68,10.68,0,0,1,7.47,2.53A8.71,8.71,0,0,1,39,19.66,9.1,9.1,0,0,1,37.52,24.72Z"/></g></svg>
